source/assets/images/flags/Lesotho.svg

<svg width="900" height="600" viewBox="0 0 900 600" xmlns="http://www.w3.org/2000/svg"><title>Lesotho</title><g fill="none" fill-rule="evenodd"><path d="M0 600h900V0H0v600z" fill="#0C8B44"/><path d="M0 420h900V0H0v420z" fill="#FFF"/><path d="M0 180h900V0H0v180z" fill="#273279"/><path d="M442.2 391.42l3.458 5.994 20.286-.692-7.607-11.296-16.137 5.994zm-26.28-1.84l1.844 4.84 17.52 2.537-7.377-11.527-11.987 4.15zm68.92-6l-12.91 6.455 3.458 5.532 17.29-2.766-7.838-9.22zm-92.9.24l1.614 5.533 14.984 3.688-5.994-12.678-10.604 3.458zm116.88-5.78l-10.374 7.838 2.767 4.84 14.292-3.687-6.685-8.99zm-76.08-2.06l6.455 11.296 16.367-5.994-1.844-4.38-20.978-.922zm30.9.46l5.533 9.452 12.91-6.225-3.46-5.07-14.983 1.843zm-83 1.84l-9.22 2.997 11.064 4.38-1.844-7.377zm27.9-6l5.302 12.68 11.296-4.38-3.688-5.534-12.91-2.766zm119.42-1.38l4.38 8.76-8.76 2.997-.692-4.15 5.072-7.607zM489 373.66l6.685 8.3 10.835-8.53-3.688-3.92L489 373.66zm-104.2-8.3l4.61 13.6 11.296-3.226-2.996-6.455-12.91-3.92zm-9.22-.22c-.692.922-5.763 11.065-5.763 11.065l8.76-1.844-2.997-9.22zm147.54-3.46l2.536 3.688-7.147 10.605-7.377-9.452 11.987-4.84zm-49.8-72.99l48.988 64.795 8.077-3.512 16.732 34.1-.45.317c-.556.385-1.125.752-1.698 1.112-.786.493-1.58.97-2.38 1.436-2.006 1.166-4.05 2.26-6.123 3.302-2.715 1.363-5.476 2.634-8.27 3.824-3.093 1.317-6.226 2.534-9.39 3.662-4.655 1.657-9.377 3.118-14.147 4.398-5.2 1.396-10.456 2.576-15.75 3.553-8.53 1.574-17.154 2.62-25.81 3.186-2.678.175-5.36.304-8.042.388-2.01.063-4.02.102-6.03.113l-.993.003c-.55 0-1.098-.003-1.647-.008-1.088-.01-2.176-.028-3.264-.055-3.594-.09-7.187-.282-10.77-.57-9.93-.8-19.795-2.352-29.493-4.62-7.132-1.67-14.176-3.724-21.084-6.162-1.98-.7-3.95-1.43-5.91-2.194-.99-.387-1.98-.782-2.965-1.186-2.717-1.116-5.41-2.293-8.07-3.543-2.047-.963-4.075-1.967-6.075-3.024-.83-.44-1.658-.89-2.478-1.35-.624-.35-1.244-.708-1.856-1.08l-.064-.038-.087-.054-.408-.252 16.187-34.532 9.123 3.154 47.5-63.96c-.144-.302-.286-.603-.427-.904-.442-.947-.866-1.903-1.28-2.862-.562-1.296-1.106-2.6-1.635-3.908-1.317-3.262-2.546-6.56-3.68-9.89-1.267-3.73-2.416-7.502-3.405-11.316-.488-1.884-.938-3.778-1.34-5.682-.375-1.778-.71-3.564-.993-5.36-.492-3.11-.835-6.245-.953-9.392-.076-1.986-.06-3.976.078-5.958.033-.474.073-.947.12-1.42.047-.465.1-.93.16-1.394.134-1.083.294-2.163.484-3.238.122-.693.256-1.385.402-2.073.88-4.13 2.217-8.183 4.168-11.936.257-.495.525-.984.803-1.467.365-.632.747-1.254 1.148-1.863.49-.745 1.01-1.472 1.557-2.177.684-.882 1.412-1.73 2.182-2.538 1.198-1.257 2.498-2.416 3.887-3.458 1.342-1.008 2.766-1.905 4.253-2.683 1.46-.763 2.98-1.412 4.54-1.947 1.483-.51 3.003-.915 4.543-1.222.33-.065.66-.127.993-.184l-.017-2.205.17-.19c.226-.246.463-.484.706-.715.255-.242.518-.477.788-.704.662-.555 1.368-1.064 2.12-1.49.49-.276 1-.517 1.53-.702.44-.153.896-.268 1.36-.327.174-.02.35-.035.527-.04l.555-.015v.03l.15.013c.175.018.35.042.52.074.43.08.852.2 1.26.353.496.184.974.41 1.436.667.216.12.428.246.637.377.59.37 1.152.785 1.69 1.23.204.17.405.345.602.524.162.148.32.298.475.455l.153.156-.005 2.42c2.145.31 4.266.777 6.33 1.444.466.15.93.312 1.39.484 1.988.742 3.9 1.683 5.685 2.83.85.544 1.67 1.136 2.456 1.77.89.72 1.74 1.497 2.538 2.32.642.663 1.252 1.357 1.83 2.076.412.515.808 1.042 1.187 1.582.284.403.558.812.823 1.227 1.88 2.943 3.296 6.164 4.38 9.478.19.578.368 1.16.537 1.743.22.76.426 1.526.617 2.295.24.963.456 1.932.654 2.905.232 1.147.437 2.3.618 3.457.087.555.17 1.11.244 1.668.05.382.095.766.135 1.15.173 1.658.255 3.325.263 4.992.01 1.757-.063 3.514-.198 5.266-.13 1.678-.318 3.35-.553 5.018-.287 2.03-.643 4.052-1.055 6.06-.377 1.842-.8 3.673-1.265 5.494-.557 2.192-1.17 4.37-1.833 6.534-.67 2.194-1.39 4.373-2.15 6.537-.65 1.847-1.33 3.683-2.04 5.508-.883 2.27-1.81 4.524-2.787 6.757h.16l-1.586 3.17zm-43.25-3.376l9.97-13.424.083-22.54h-11.008l13.442-14.083-.24-33.173c-1.958.388-3.88.958-5.72 1.73-1.094.46-2.16.99-3.184 1.59-.998.586-1.956 1.237-2.868 1.95-1.48 1.155-2.832 2.473-4.04 3.913-.424.506-.83 1.028-1.22 1.563-.307.423-.603.855-.888 1.294-.24.37-.472.743-.697 1.122-1.706 2.882-2.957 6.018-3.86 9.24-.588 2.104-1.03 4.25-1.354 6.41-.088.59-.168 1.18-.24 1.77-.055.467-.106.932-.148 1.4-.07.768-.118 1.538-.148 2.31-.074 1.974-.027 3.952.107 5.923.15 2.207.41 4.407.75 6.594.463 2.994 1.074 5.963 1.79 8.907.79 3.258 1.71 6.483 2.726 9.677 1.035 3.258 2.17 6.484 3.393 9.677 1.036 2.707 2.133 5.39 3.305 8.04l.05.11zm39.815-1.165c.686-1.548 1.346-3.107 1.984-4.676.655-1.615 1.288-3.24 1.897-4.875.705-1.892 1.378-3.796 2.015-5.712.726-2.185 1.407-4.386 2.032-6.603.524-1.854 1.01-3.72 1.45-5.597.42-1.805.8-3.62 1.13-5.446.306-1.716.568-3.44.77-5.173.183-1.55.318-3.107.394-4.667.107-2.207.098-4.422-.083-6.625-.046-.557-.103-1.113-.172-1.668-.048-.385-.103-.77-.16-1.153-.076-.514-.157-1.026-.244-1.538-.31-1.846-.69-3.68-1.154-5.492-.198-.77-.412-1.534-.643-2.293-.18-.59-.37-1.178-.573-1.76-.16-.465-.33-.926-.507-1.385-1.028-2.66-2.332-5.23-4.014-7.54-.24-.33-.488-.653-.742-.97-.375-.467-.765-.92-1.172-1.358-1.077-1.16-2.27-2.21-3.56-3.128-1.118-.794-2.307-1.486-3.544-2.075-1.194-.57-2.432-1.042-3.696-1.43-1.43-.437-2.892-.766-4.368-1.007l-.068 32.828 14.838 13.934h-11.103l.084 23.23 9.205 12.175z" fill="#0A0A08"/></g></svg>

<?xml version="1.0" encoding="UTF-8" standalone="no"?>
<svg width="900px" height="600px" viewBox="0 0 900 600" version="1.1" xmlns="http://www.w3.org/2000/svg" xmlns:xlink="http://www.w3.org/1999/xlink" xmlns:sketch="http://www.bohemiancoding.com/sketch/ns">
    <!-- Generator: Sketch 3.3.3 (12072) - http://www.bohemiancoding.com/sketch -->
    <title>Lesotho</title>
    <desc>Created with Sketch.</desc>
    <defs></defs>
    <g id="Page-1" stroke="none" stroke-width="1" fill="none" fill-rule="evenodd" sketch:type="MSPage">
        <g id="Lesotho" sketch:type="MSLayerGroup">
            <path d="M0,600 L900,600 L900,0 L0,0 L0,600 Z" id="Fill-1" fill="#0C8B44" sketch:type="MSShapeGroup"></path>
            <path d="M0,420 L900,420 L900,0 L0,0 L0,420 Z" id="Fill-2" fill="#FFFFFF" sketch:type="MSShapeGroup"></path>
            <path d="M0,180 L900,180 L900,0 L0,0 L0,180 Z" id="Fill-3" fill="#273279" sketch:type="MSShapeGroup"></path>
            <path d="M442.2,391.42 L445.658,397.414 L465.944,396.722 L458.337,385.426 L442.2,391.42 L442.2,391.42 Z M415.92,389.58 L417.764,394.421 L435.284,396.957 L427.907,385.43 L415.92,389.58 L415.92,389.58 Z M484.84,383.58 L471.93,390.035 L475.388,395.567 L492.678,392.801 L484.84,383.58 L484.84,383.58 Z M391.94,383.82 L393.554,389.353 L408.538,393.041 L402.544,380.362 L391.94,383.82 L391.94,383.82 Z M508.82,378.04 L498.446,385.878 L501.213,390.719 L515.505,387.031 L508.82,378.04 L508.82,378.04 Z M432.74,375.98 L439.195,387.276 L455.562,381.282 L453.718,376.902 L432.74,375.98 L432.74,375.98 Z M463.64,376.44 L469.173,385.892 L482.082,379.667 L478.624,374.596 L463.64,376.44 L463.64,376.44 Z M380.64,378.28 L371.419,381.277 L382.484,385.657 L380.64,378.28 L380.64,378.28 Z M408.54,372.28 L413.842,384.959 L425.138,380.579 L421.45,375.046 L408.54,372.28 L408.54,372.28 Z M527.96,370.9 L532.34,379.66 L523.58,382.657 L522.888,378.507 L527.96,370.9 L527.96,370.9 Z M489,373.66 L495.685,381.959 L506.52,373.429 L502.832,369.51 L489,373.66 L489,373.66 Z M384.8,365.36 L389.411,378.961 L400.706,375.734 L397.71,369.279 L384.8,365.36 L384.8,365.36 Z M375.58,365.14 C374.888,366.062 369.817,376.205 369.817,376.205 L378.577,374.361 L375.58,365.14 L375.58,365.14 Z M523.12,361.68 L525.656,365.368 L518.509,375.973 L511.133,366.521 L523.12,361.68 L523.12,361.68 Z M473.319,288.691 L522.308,353.485 L530.385,349.973 L547.117,384.072 C546.967,384.178 546.818,384.285 546.667,384.39 C546.111,384.775 545.542,385.142 544.969,385.502 C544.184,385.995 543.39,386.473 542.589,386.938 C540.584,388.104 538.539,389.199 536.467,390.24 C533.752,391.603 530.991,392.874 528.196,394.064 C525.104,395.381 521.971,396.598 518.806,397.726 C514.152,399.383 509.43,400.844 504.66,402.124 C499.461,403.52 494.204,404.7 488.911,405.677 C480.381,407.251 471.756,408.298 463.101,408.863 C460.422,409.038 457.741,409.167 455.058,409.251 C453.049,409.313 451.039,409.352 449.029,409.363 C448.697,409.364 448.366,409.365 448.035,409.366 C447.486,409.365 446.937,409.363 446.388,409.358 C445.3,409.349 444.212,409.33 443.124,409.303 C439.53,409.212 435.937,409.021 432.353,408.732 C422.425,407.933 412.559,406.381 402.861,404.112 C395.728,402.444 388.684,400.389 381.776,397.951 C379.795,397.251 377.825,396.52 375.867,395.756 C374.875,395.369 373.886,394.974 372.901,394.57 C370.183,393.454 367.49,392.277 364.83,391.027 C362.783,390.064 360.755,389.06 358.755,388.003 C357.924,387.563 357.097,387.114 356.277,386.653 C355.653,386.302 355.033,385.945 354.421,385.574 L354.356,385.535 L354.269,385.481 L353.862,385.228 L370.049,350.696 L379.173,353.85 L426.672,289.889 C426.529,289.588 426.387,289.287 426.246,288.986 C425.804,288.039 425.38,287.083 424.965,286.124 C424.404,284.828 423.86,283.525 423.331,282.216 C422.013,278.954 420.784,275.656 419.651,272.326 C418.383,268.596 417.234,264.824 416.245,261.01 C415.757,259.126 415.307,257.232 414.905,255.328 C414.53,253.55 414.195,251.764 413.912,249.969 C413.42,246.859 413.077,243.723 412.959,240.576 C412.884,238.59 412.901,236.6 413.038,234.618 C413.071,234.144 413.111,233.671 413.159,233.199 C413.205,232.733 413.259,232.268 413.317,231.804 C413.452,230.721 413.612,229.641 413.802,228.566 C413.924,227.873 414.058,227.181 414.204,226.493 C415.084,222.362 416.421,218.31 418.372,214.557 C418.629,214.062 418.897,213.573 419.175,213.09 C419.54,212.458 419.922,211.836 420.323,211.227 C420.814,210.482 421.333,209.755 421.88,209.05 C422.564,208.168 423.292,207.32 424.062,206.512 C425.26,205.255 426.56,204.096 427.949,203.054 C429.292,202.046 430.716,201.149 432.203,200.371 C433.663,199.607 435.183,198.958 436.742,198.423 C438.226,197.914 439.746,197.508 441.286,197.201 C441.616,197.135 441.947,197.073 442.279,197.016 L442.263,194.811 C442.319,194.748 442.376,194.684 442.433,194.621 C442.659,194.374 442.896,194.136 443.139,193.905 C443.395,193.663 443.658,193.428 443.928,193.201 C444.59,192.645 445.296,192.136 446.049,191.71 C446.538,191.434 447.047,191.193 447.577,191.008 C448.018,190.855 448.474,190.74 448.937,190.681 C449.112,190.659 449.288,190.645 449.465,190.639 L450.02,190.625 L450.02,190.655 C450.07,190.659 450.12,190.663 450.17,190.668 C450.345,190.686 450.519,190.71 450.691,190.742 C451.121,190.822 451.542,190.943 451.951,191.095 C452.446,191.279 452.924,191.506 453.386,191.762 C453.602,191.881 453.814,192.008 454.023,192.139 C454.613,192.511 455.175,192.925 455.712,193.37 C455.917,193.54 456.118,193.715 456.315,193.894 C456.477,194.042 456.636,194.192 456.79,194.349 L456.943,194.506 L456.938,196.927 C459.083,197.236 461.204,197.703 463.267,198.37 C463.734,198.521 464.199,198.682 464.659,198.854 C466.646,199.596 468.559,200.537 470.343,201.683 C471.193,202.228 472.013,202.82 472.799,203.454 C473.691,204.175 474.54,204.951 475.338,205.775 C475.98,206.437 476.59,207.131 477.167,207.85 C477.58,208.365 477.976,208.892 478.355,209.432 C478.639,209.835 478.913,210.244 479.178,210.659 C481.058,213.603 482.474,216.824 483.558,220.138 C483.747,220.716 483.926,221.297 484.095,221.881 C484.316,222.641 484.521,223.406 484.712,224.175 C484.952,225.138 485.168,226.107 485.366,227.08 C485.598,228.227 485.803,229.38 485.984,230.537 C486.071,231.092 486.154,231.648 486.228,232.205 C486.278,232.587 486.323,232.971 486.363,233.355 C486.536,235.013 486.618,236.68 486.626,238.347 C486.635,240.104 486.563,241.861 486.428,243.613 C486.298,245.291 486.11,246.964 485.875,248.631 C485.588,250.661 485.232,252.682 484.82,254.691 C484.443,256.532 484.019,258.363 483.555,260.184 C482.998,262.376 482.384,264.555 481.722,266.718 C481.052,268.912 480.333,271.091 479.572,273.255 C478.922,275.102 478.242,276.938 477.532,278.763 C476.649,281.034 475.721,283.287 474.745,285.52 L474.905,285.52 L473.319,288.691 L473.319,288.691 Z M430.07,285.314 L440.039,271.89 L440.123,249.35 L429.115,249.35 L442.557,235.267 L442.316,202.094 C440.359,202.482 438.438,203.052 436.598,203.825 C435.503,204.284 434.437,204.815 433.413,205.415 C432.415,206 431.457,206.651 430.545,207.363 C429.065,208.519 427.713,209.837 426.506,211.277 C426.081,211.783 425.675,212.305 425.286,212.84 C424.978,213.263 424.682,213.695 424.397,214.134 C424.157,214.503 423.925,214.877 423.7,215.256 C421.994,218.138 420.743,221.274 419.841,224.495 C419.252,226.6 418.81,228.745 418.486,230.907 C418.398,231.496 418.318,232.086 418.247,232.677 C418.191,233.143 418.14,233.608 418.098,234.075 C418.028,234.844 417.98,235.614 417.95,236.385 C417.876,238.36 417.923,240.338 418.057,242.309 C418.207,244.517 418.467,246.717 418.806,248.904 C419.27,251.898 419.881,254.867 420.596,257.811 C421.388,261.068 422.307,264.293 423.323,267.487 C424.358,270.745 425.494,273.971 426.716,277.164 C427.752,279.871 428.849,282.554 430.021,285.205 L430.07,285.314 L430.07,285.314 Z M469.885,284.149 C470.571,282.602 471.231,281.043 471.869,279.474 C472.525,277.859 473.158,276.234 473.767,274.599 C474.472,272.708 475.145,270.804 475.782,268.888 C476.508,266.703 477.189,264.502 477.814,262.285 C478.338,260.431 478.823,258.565 479.263,256.688 C479.685,254.883 480.065,253.067 480.393,251.242 C480.7,249.526 480.962,247.801 481.165,246.069 C481.347,244.519 481.482,242.963 481.558,241.403 C481.665,239.196 481.656,236.981 481.475,234.778 C481.429,234.221 481.372,233.665 481.303,233.11 C481.255,232.725 481.2,232.341 481.143,231.957 C481.067,231.443 480.986,230.931 480.899,230.419 C480.589,228.574 480.211,226.74 479.746,224.928 C479.548,224.159 479.334,223.394 479.103,222.635 C478.923,222.044 478.732,221.457 478.53,220.875 C478.369,220.41 478.2,219.949 478.023,219.49 C476.995,216.829 475.691,214.26 474.009,211.949 C473.769,211.62 473.522,211.297 473.268,210.979 C472.893,210.513 472.503,210.06 472.096,209.622 C471.019,208.462 469.826,207.411 468.536,206.494 C467.418,205.7 466.229,205.008 464.992,204.419 C463.798,203.851 462.56,203.378 461.296,202.991 C459.865,202.553 458.404,202.224 456.928,201.983 L456.86,234.811 L471.698,248.744 L460.595,248.744 L460.679,271.973 L469.885,284.149 L469.885,284.149 Z" id="Fill-4" fill="#0A0A08" sketch:type="MSShapeGroup"></path>
        </g>
    </g>
</svg>
